X: 23493
T: Lexie MacAskill
R: reel
M: 4/4
K: Edorian
|:B2 B2 ABBA|B2AF DEFA|B2 B2 ABBA|BdcA B2FA|
B2 B2 ABBA|B2AF DEFA|B2 B2 ABBA|BdcA B2Bc:|
|:d2cd B2AF|E3F DEFA|d2cd B2AF|BdcA B2Bc|
d2cd B2AF|E3F DEFA|d2cd B2AF|BdcA B2BA:|
|:B2 B2 B2AF|E2 E2 E2 FA|B2 B2 B2AF|BdcA B2FA|
B2 B2 B2AF|E2 E2 E2 FA|B2 B2 B2AF|BdcA B2Bd:|
eBBe B2AF|E3F DEFA|eBBe B2AF|BdcA B3d|
eBBe B2AF|E3F DEFA|eBBe B2AF|BdcA BBBd:|
eBBe B2AF|EEEF DEFA|eBBe B2AF|BdcA BBBd|
eBBe B2AF|E3F DEFA|B4d4|eBBe B2AF|BdcA B4||

